resources/svg/zip-o.svg

<svg xmlns="http://www.w3.org/2000/svg" viewBox="0 0 15 15" fill="none"><path d="M3.5 8.5V8H3.10961L3.01493 8.37873L3.5 8.5ZM5.5 8.5L5.98507 8.37873L5.89039 8H5.5V8.5ZM6.18937 11.2575L6.67444 11.1362V11.1362L6.18937 11.2575ZM2.81063 11.2575L3.29571 11.3787L2.81063 11.2575ZM9.5 10.5L9.77735 10.084C9.62392 9.98169 9.42665 9.97215 9.26407 10.0592C9.10149 10.1462 9 10.3156 9 10.5H9.5ZM12.5 12.5L12.2226 12.916C12.3761 13.0183 12.5733 13.0278 12.7359 12.9408C12.8985 12.8538 13 12.6844 13 12.5H12.5ZM9.5 4.5H9V5H9.5V4.5ZM1.5 1H13.5V0H1.5V1ZM14 1.5V13.5H15V1.5H14ZM13.5 14H1.5V15H13.5V14ZM1 13.5V1.5H0V13.5H1ZM1.5 14C1.22386 14 1 13.7761 1 13.5H0C0 14.3284 0.671573 15 1.5 15V14ZM14 13.5C14 13.7761 13.7761 14 13.5 14V15C14.3284 15 15 14.3284 15 13.5H14ZM13.5 1C13.7761 1 14 1.22386 14 1.5H15C15 0.671573 14.3284 0 13.5 0V1ZM1.5 0C0.671573 0 0 0.671574 0 1.5H1C1 1.22386 1.22386 1 1.5 1V0ZM3 3H6V2H3V3ZM3 5H6V4H3V5ZM3 7H6V6H3V7ZM3.5 9H5.5V8H3.5V9ZM5.01493 8.62127L5.7043 11.3787L6.67444 11.1362L5.98507 8.37873L5.01493 8.62127ZM5.21922 12H3.78078V13H5.21922V12ZM3.29571 11.3787L3.98507 8.62127L3.01493 8.37873L2.32556 11.1362L3.29571 11.3787ZM3.78078 12C3.45549 12 3.21681 11.6943 3.29571 11.3787L2.32556 11.1362C2.08888 12.0829 2.80492 13 3.78078 13V12ZM5.7043 11.3787C5.78319 11.6943 5.54451 12 5.21922 12V13C6.19508 13 6.91112 12.0829 6.67444 11.1362L5.7043 11.3787ZM10 13V10.5H9V13H10ZM9.22265 10.916L12.2226 12.916L12.7774 12.084L9.77735 10.084L9.22265 10.916ZM13 12.5V10H12V12.5H13ZM9 6V9H10V6H9ZM12 6V9H13V6H12ZM9.5 8H12.5V7H9.5V8ZM10 4.5V3.5H9V4.5H10ZM13 4H11.5V5H13V4ZM11.5 4H9.5V5H11.5V4ZM11 3.5V4.5H12V3.5H11ZM10.5 3C10.7761 3 11 3.22386 11 3.5H12C12 2.67157 11.3284 2 10.5 2V3ZM10 3.5C10 3.22386 10.2239 3 10.5 3V2C9.67157 2 9 2.67157 9 3.5H10Z" fill="black"/></svg>

<svg xmlns="http://www.w3.org/2000/svg" viewBox="0 0 15 15" fill="none"><path d="M3.5 8.5V8h-.39l-.095.379.485.121zm2 0l.485-.121L5.89 8H5.5v.5zm.69 2.758l.484-.122-.485.122zm-3.38 0l.486.12-.485-.12zM9.5 10.5l.277-.416A.5.5 0 009 10.5h.5zm3 2l-.277.416A.5.5 0 0013 12.5h-.5zm-3-8H9V5h.5v-.5zM1.5 1h12V0h-12v1zm12.5.5v12h1v-12h-1zM13.5 14h-12v1h12v-1zM1 13.5v-12H0v12h1zm.5.5a.5.5 0 01-.5-.5H0A1.5 1.5 0 001.5 15v-1zm12.5-.5a.5.5 0 01-.5.5v1a1.5 1.5 0 001.5-1.5h-1zM13.5 1a.5.5 0 01.5.5h1A1.5 1.5 0 0013.5 0v1zm-12-1A1.5 1.5 0 000 1.5h1a.5.5 0 01.5-.5V0zM3 3h3V2H3v1zm0 2h3V4H3v1zm0 2h3V6H3v1zm.5 2h2V8h-2v1zm1.515-.379l.69 2.758.97-.243-.69-2.757-.97.242zM5.219 12H3.781v1h1.438v-1zm-1.923-.621l.69-2.758-.971-.242-.69 2.757.97.243zM3.78 12a.5.5 0 01-.485-.621l-.97-.243A1.5 1.5 0 003.78 13v-1zm1.923-.621A.5.5 0 015.22 12v1a1.5 1.5 0 001.455-1.864l-.97.243zM10 13v-2.5H9V13h1zm-.777-2.084l3 2 .554-.832-3-2-.554.832zM13 12.5V10h-1v2.5h1zM9 6v3h1V6H9zm3 0v3h1V6h-1zM9.5 8h3V7h-3v1zm.5-3.5v-1H9v1h1zm3-.5h-1.5v1H13V4zm-1.5 0h-2v1h2V4zm-.5-.5v1h1v-1h-1zm-.5-.5a.5.5 0 01.5.5h1A1.5 1.5 0 0010.5 2v1zm-.5.5a.5.5 0 01.5-.5V2A1.5 1.5 0 009 3.5h1z" fill="currentColor"/></svg>
